X:1
T:Title
%%score 1 { 2 | 3 }
L:1/8
Q:1/4=90
M:4/4
K:Bb
V:1 treble nm="Grand Piano, Soprano"
V:2 bass nm="Choir Pad, I Am on the Way"
V:3 bass 
V:1
 [Fd]>[DB] [Fd]>[Fd] [Fd]>[Ec] [DB]2 | [FB]>[FB] [GB]>[Gc] [GB]>[EG] [DF]2 | %2
w: By~J.~D.~Eller,~1919 * * * * * *||
 [DF]>[EG] [FB]>[FB] [FB]>[Fc] [Fd]>[Fd] | [Fd]>[=EB] [Fc]6 | [Fd]>[DB] [Fd]>[Fd] [Fd]>[Ec] [DB]2 | %5
w: |||
 [FB]>[FB] [GB]>[Gc] [GB]>[EG] [DF]2 | [DF]>[EG] [FB]>[FB] [FB]>[Gc] [Fd]>[Fd] | [Fc]>[Ec] [DB]6 | %8
w: |||
 B>B [EB]2 [EB]2 [GB]>[FA] | [FB]>[Fc] [Fd][DB] [DF]>[EG] [DF][DF] | B>B [DB]2 [DB]2 [DG]>[DB] | %11
w: |||
 [=Ec]>[Ed] [Fc][Fc] [Fc]>[Fd] [Fc]2 | d>d [Fd]2 [Fd]2 [Fd]>[DB] | %13
w: ||
 [FB]>[Fc] [Fd][FB] [FB]>[Fc] [Bd][Bd] | c>c [Ac]2 [Ac]2 [Af]>[Ae] | [Ad]>[Ac] BF G>G F2- | %16
w: |||
 F4 z4 |] %17
w: |
V:2
 B,>F, B,>B, B,>B, F,2 | B,>B, B,>B, B,>B, B,2 | B,>B, D>D B,>A, B,>B, | B,>B, A,6 | %4
 B,>F, B,>B, B,>B, F,2 | B,>B, B,>B, B,>B, B,2 | B,>B, D>D B,>B, B,>B, | A,>F, F,6 | %8
 B,,>D, G,2 G,2 B,>C | B,>A, B,F, B,>B, B,B, | D,>D, B,2 B,2 B,>B, | G,>B, A,A, A,>B, A,2 | %12
 F,>D, B,2 B,2 B,>F, | B,>A, B,[K:treble]D D>E FF | G,>E,[K:treble] F2 F2 C>C | F>C DD E>E D2- | %16
 D4 z4 |] %17
V:3
 B,,>B,, B,,>B,, B,,>B,, B,,2 | D,>D, E,>E, E,>E, B,,2 | B,,>B,, B,,>B,, D,>F, z2 | z z/ G,/ F,6 | %4
 B,,>B,, B,,>B,, B,,>B,, B,,2 | D,>D, E,>E, E,>E, B,,2 | B,,>B,, B,,>B,, D,>E, F,>F, | F,2 B,,6 | %8
 z2 E,4- E,>E, | D,>C, B,,B,,- B,,3- B,,/ z/ | z2 G,4- G,>G, | C,>C, F,6 | z2 B,,4- B,,>B,, | %13
 D,>F, z B,- B,3- B,/ z/ | z2 F,4- F,>F, | F,>F, B,,6 | z8 |] %17

